src/components/ProtocolIcon/near.svg

<svg width="16" height="16" viewBox="0 0 16 16" fill="none" xmlns="http://www.w3.org/2000/svg">
<path d="M12.8213 0.817776L9.48283 5.77778C9.25197 6.11555 9.69588 6.52445 10.0155 6.24L13.3008 3.37778C13.3896 3.30666 13.5139 3.36 13.5139 3.48445V12.4266C13.5139 12.5511 13.3541 12.6045 13.283 12.5155L3.33852 0.604445C3.01887 0.213334 2.55716 0 2.04218 0H1.68702C0.763597 0 0 0.764445 0 1.70666V14.2934C0 15.2355 0.763597 16 1.70477 16C2.29079 16 2.84129 15.6978 3.16094 15.1822L6.49945 10.2222C6.73031 9.88448 6.28636 9.47552 5.96671 9.76L2.68147 12.6045C2.59267 12.6755 2.46837 12.6222 2.46837 12.4978V3.57334C2.46837 3.44889 2.62819 3.39555 2.69923 3.48445L12.6437 15.3955C12.9634 15.7866 13.4428 16 13.94 16H14.2953C15.2364 16 16 15.2355 16 14.2934V1.70666C15.9823 0.764445 15.2186 0 14.2775 0C13.6914 0 13.1409 0.302222 12.8213 0.817776V0.817776Z" fill="currentColor"/>
</svg>

<svg xmlns="http://www.w3.org/2000/svg" width="16" height="16" fill="none"><path fill="currentColor" d="m12.821.818-3.338 4.96c-.231.338.213.746.532.462l3.286-2.862c.089-.071.213-.018.213.106v8.943c0 .124-.16.178-.231.088L3.339.605A1.64 1.64 0 0 0 2.042 0h-.355C.764 0 0 .764 0 1.707v12.586C0 15.236.764 16 1.705 16c.586 0 1.136-.302 1.456-.818l3.338-4.96c.231-.338-.213-.746-.532-.462L2.68 12.605c-.088.07-.213.017-.213-.107V3.573c0-.124.16-.177.231-.089l9.945 11.912c.32.39.799.604 1.296.604h.355c.941 0 1.705-.764 1.705-1.707V1.707A1.733 1.733 0 0 0 14.277 0c-.586 0-1.136.302-1.456.818"/></svg>
